public/avatar/item2/65.svg

<svg xmlns:xlink="http://www.w3.org/1999/xlink" height="99.2" width="82.2" xmlns="http://www.w3.org/2000/svg"><g transform="translate(31 46.75)"><use height="16.9" transform="translate(.5 17.2)" width="15.9" xlink:href="#a"/><use height="16.9" transform="matrix(-1 0 0 1 -1.35 17.15)" width="15.9" xlink:href="#a"/><use height="10.7" transform="translate(-6.3 31.45)" width="11.25" xlink:href="#b"/></g><defs><g id="c" fill-rule="evenodd"><path d="M7.95-6.45q.1 1.1-.75 2.05v.05q-.9 1-2.15 1H4.9q-.1.85-.75 1.65v-.05Q3.3-.75 2.1-.7q0 .95-.75 1.75v.05q-.8.9-1.9 1 .15.95-.4 1.9H-1q-.85 1.25-2.05 1.35.05.85-.45 1.75h-.05q-.95 1.35-2.3 1.35l-1.05-.3v.05q-.85-.55-1-1.65-.15-1 .45-1.9V4.6q.85-1.25 2.1-1.35-.1-.9.45-1.7.8-1.3 2.05-1.4-.1-1.15.75-2.1h.05q.85-1 2-1.05 0-.95.75-1.75h.05Q1.6-5.8 2.8-5.8h.05l.1.05q.1-.9.75-1.65h.05q.9-1.05 2.1-1.05.85 0 1.35.5l.05.05q.6.4.7 1.45" fill="#2b2b2b" transform="translate(7.95 8.45)"/><path d="M-7.05 4.9q1.2-1.8 2.65-.9 1.55.9.35 2.8-1.2 1.8-2.65.9-1.55-1-.35-2.8" fill="#c6c6c6" transform="translate(7.95 8.45)"/><path d="M-4.5 1.8Q-3.3-.05-1.8.9q1.45.9.3 2.8-1.15 1.8-2.65.9-1.45-1-.35-2.8" fill="#c6c6c6" transform="translate(7.95 8.45)"/><path d="M-1.75-1.6Q-.25-3.25 1-2.1 2.35-.95.9.7q-1.45 1.65-2.75.5-1.35-1.15.1-2.8" fill="#c6c6c6" transform="translate(7.95 8.45)"/><path d="M1.05-4.4q1.5-1.65 2.75-.5 1.35 1.15-.1 2.8Q2.25-.45.95-1.6q-1.35-1.15.1-2.8" fill="#c6c6c6" transform="translate(7.95 8.45)"/><path d="M4.1-7.05q1.4-1.65 2.75-.5t-.1 2.8Q5.25-3.1 4-4.25q-1.35-1.15.1-2.8" fill="#c6c6c6" transform="translate(7.95 8.45)"/><path d="M-4.45 6.05q.4-.8-.1-1.3l-1.5.05-.8-.25q1.5-1.6 2.8-.3 1 1-.05 2.45l-.35-.65m2.55-3.1q.45-.85-.1-1.3l-1.45.05-.85-.25q1.55-1.55 2.8-.3 1.05 1.05 0 2.45l-.4-.65M.7-.25q.45-.75-.1-1.3l-1.45.1-.85-.3q1.55-1.55 2.8-.3 1 1 0 2.45L.7-.25m2.8-2.8q.45-.75-.1-1.3l-1.45.1-.85-.25v-.05q1.5-1.5 2.8-.3 1.05 1.05 0 2.5l-.4-.7M6.55-5.7Q7-6.5 6.5-7L5-6.9l-.85-.3h.05q1.5-1.55 2.75-.3Q8-6.45 6.95-5l-.4-.7" fill="#f9f4f4" transform="translate(7.95 8.45)"/></g><g id="b" fill-rule="evenodd"><path d="M.6 35.45q2.2.4 2.25-1.2l1.8 1.65q1.15 1.95-1.85 3.5-.15-2.1-2.25-1.45-.25 1.9 1.4 2-.75 1.25-1.8 1.9-2.1 1.2-3.55-2.05 1.9 0 1.45-1.85-1.45-.3-1.9.45l-.15.75q-1.25-.6-1.9-1.55-1.3-1.85 1.8-3.55l.4.85q.6.8 1.85.5.4-1.9-1.4-2l1.55-1.65q1.95-1.1 3.75 1.65l-.95.3q-.85.55-.5 1.75" fill="#333" transform="translate(6.3 -31.45)"/><path d="M.35 35.65q2.45.75 2.6-.85 2.3 1.75.1 3.9-.6-1.65-2.7-1-.3 2.15.9 2.2-1.8 2.15-3.95.1 1.55-.55 1.1-2.35-2.5-.6-2.55.85-2.25-1.75-.1-3.9l.55.75q.75.65 2 .35.4-2.3-.9-2.35l1.2-.8q1.45-.55 2.8.7-.4.15-.75.5-.7.7-.3 1.9" fill="#c6c6c6" transform="translate(6.3 -31.45)"/><path d="M-1.05 34.95q0-.8-.15-1.15l-.35-.7 1.85-.15q-.7.2-1.35 2m-2.65 1.6q-.75.45-.35 1l-.7-1.2q-.05-.55.3-1l.05.1q.7.75 1.7.75l-1 .35m5.95-.6.85-.4.45 1.05-.3 1-2.3-1.25.05-.1 1.25-.3M-1.3 39.2l.2-.6.25.65 1.15.7-1.2.3-1.35-.2q.65-.15.95-.85m-.55-2.85q.75-.2.85-.45l.55-1.1q-.15.95.05 1.25l1.5.9H-.5l.2 1.45-.6-.65-.4-.65-.55-.2h-.9l.85-.45.05-.1" fill="#f9f4f4" transform="translate(6.3 -31.45)"/></g><use height="16.9" width="15.9" xlink:href="#c" id="a"/></defs></svg>

<?xml version="1.0" encoding="UTF-8" standalone="no"?>
<svg xmlns:xlink="http://www.w3.org/1999/xlink" height="99.2px" width="82.2px" xmlns="http://www.w3.org/2000/svg">
  <g transform="matrix(1.0, 0.0, 0.0, 1.0, 31.0, 46.75)">
    <use height="16.9" transform="matrix(1.0, 0.0, 0.0, 1.0, 0.5, 17.2)" width="15.9" xlink:href="#sprite0"/>
    <use height="16.9" transform="matrix(-1.0, 0.0, 0.0, 1.0, -1.35, 17.15)" width="15.9" xlink:href="#sprite0"/>
    <use height="10.7" transform="matrix(1.0, 0.0, 0.0, 1.0, -6.3, 31.45)" width="11.25" xlink:href="#shape1"/>
  </g>
  <defs>
    <g id="sprite0" transform="matrix(1.0, 0.0, 0.0, 1.0, 7.95, 8.45)">
      <use height="16.9" transform="matrix(1.0, 0.0, 0.0, 1.0, -7.95, -8.45)" width="15.9" xlink:href="#shape0"/>
    </g>
    <g id="shape0" transform="matrix(1.0, 0.0, 0.0, 1.0, 7.95, 8.45)">
      <path d="M7.95 -6.45 Q8.05 -5.35 7.2 -4.4 L7.2 -4.35 Q6.3 -3.35 5.05 -3.35 L4.9 -3.35 Q4.8 -2.5 4.15 -1.7 L4.15 -1.75 Q3.3 -0.75 2.1 -0.7 2.1 0.25 1.35 1.05 L1.35 1.1 Q0.55 2.0 -0.55 2.1 -0.4 3.05 -0.95 4.0 L-1.0 4.0 Q-1.85 5.25 -3.05 5.35 -3.0 6.2 -3.5 7.1 L-3.55 7.1 Q-4.5 8.45 -5.85 8.45 L-6.9 8.15 -6.9 8.2 Q-7.75 7.65 -7.9 6.55 -8.05 5.55 -7.45 4.65 L-7.45 4.6 Q-6.6 3.35 -5.35 3.25 -5.45 2.35 -4.9 1.55 -4.1 0.25 -2.85 0.15 -2.95 -1.0 -2.1 -1.95 L-2.05 -1.95 Q-1.2 -2.95 -0.05 -3.0 -0.05 -3.95 0.7 -4.75 L0.75 -4.75 Q1.6 -5.8 2.8 -5.8 L2.85 -5.8 2.95 -5.75 Q3.05 -6.65 3.7 -7.4 L3.75 -7.4 Q4.65 -8.45 5.85 -8.45 6.7 -8.45 7.2 -7.95 L7.25 -7.9 Q7.85 -7.5 7.95 -6.45" fill="#2b2b2b" fill-rule="evenodd" stroke="none"/>
      <path d="M-7.05 4.9 Q-5.85 3.1 -4.4 4.0 -2.85 4.9 -4.05 6.8 -5.25 8.6 -6.7 7.7 -8.25 6.7 -7.05 4.9" fill="#c6c6c6" fill-rule="evenodd" stroke="none"/>
      <path d="M-4.5 1.8 Q-3.3 -0.05 -1.8 0.9 -0.35 1.8 -1.5 3.7 -2.65 5.5 -4.15 4.6 -5.6 3.6 -4.5 1.8" fill="#c6c6c6" fill-rule="evenodd" stroke="none"/>
      <path d="M-1.75 -1.6 Q-0.25 -3.25 1.0 -2.1 2.35 -0.95 0.9 0.7 -0.55 2.35 -1.85 1.2 -3.2 0.05 -1.75 -1.6" fill="#c6c6c6" fill-rule="evenodd" stroke="none"/>
      <path d="M1.05 -4.4 Q2.55 -6.05 3.8 -4.9 5.15 -3.75 3.7 -2.1 2.25 -0.45 0.95 -1.6 -0.4 -2.75 1.05 -4.4" fill="#c6c6c6" fill-rule="evenodd" stroke="none"/>
      <path d="M4.1 -7.05 Q5.5 -8.7 6.85 -7.55 8.2 -6.4 6.75 -4.75 5.25 -3.1 4.0 -4.25 2.65 -5.4 4.1 -7.05" fill="#c6c6c6" fill-rule="evenodd" stroke="none"/>
      <path d="M-4.45 6.05 Q-4.05 5.25 -4.55 4.75 L-6.05 4.8 -6.85 4.55 Q-5.35 2.95 -4.05 4.25 -3.05 5.25 -4.1 6.7 L-4.45 6.05" fill="#f9f4f4" fill-rule="evenodd" stroke="none"/>
      <path d="M-1.9 2.95 Q-1.45 2.1 -2.0 1.65 L-3.45 1.7 -4.3 1.45 Q-2.75 -0.1 -1.5 1.15 -0.45 2.2 -1.5 3.6 L-1.9 2.95" fill="#f9f4f4" fill-rule="evenodd" stroke="none"/>
      <path d="M0.7 -0.25 Q1.15 -1.0 0.6 -1.55 L-0.85 -1.45 -1.7 -1.75 Q-0.15 -3.3 1.1 -2.05 2.1 -1.05 1.1 0.4 L0.7 -0.25" fill="#f9f4f4" fill-rule="evenodd" stroke="none"/>
      <path d="M3.5 -3.05 Q3.95 -3.8 3.4 -4.35 L1.95 -4.25 1.1 -4.5 1.1 -4.55 Q2.6 -6.05 3.9 -4.85 4.95 -3.8 3.9 -2.35 L3.5 -3.05" fill="#f9f4f4" fill-rule="evenodd" stroke="none"/>
      <path d="M6.55 -5.7 Q7.0 -6.5 6.5 -7.0 L5.0 -6.9 4.15 -7.2 4.2 -7.2 Q5.7 -8.75 6.95 -7.5 8.0 -6.45 6.95 -5.0 L6.55 -5.7" fill="#f9f4f4" fill-rule="evenodd" stroke="none"/>
    </g>
    <g id="shape1" transform="matrix(1.0, 0.0, 0.0, 1.0, 6.3, -31.45)">
      <path d="M0.6 35.45 Q2.8 35.85 2.85 34.25 L4.65 35.9 Q5.8 37.85 2.8 39.4 2.65 37.3 0.55 37.95 0.3 39.85 1.95 39.95 1.2 41.2 0.15 41.85 -1.95 43.05 -3.4 39.8 -1.5 39.8 -1.95 37.95 -3.4 37.65 -3.85 38.4 L-4.0 39.15 Q-5.25 38.55 -5.9 37.6 -7.2 35.75 -4.1 34.05 L-3.7 34.9 Q-3.1 35.7 -1.85 35.4 -1.45 33.5 -3.25 33.4 L-1.7 31.75 Q0.25 30.65 2.05 33.4 L1.1 33.7 Q0.25 34.25 0.6 35.45" fill="#333333" fill-rule="evenodd" stroke="none"/>
      <path d="M0.35 35.65 Q2.8 36.4 2.95 34.8 5.25 36.55 3.05 38.7 2.45 37.05 0.35 37.7 0.05 39.85 1.25 39.9 -0.55 42.05 -2.7 40.0 -1.15 39.45 -1.6 37.65 -4.1 37.05 -4.15 38.5 -6.4 36.75 -4.25 34.6 L-3.7 35.35 Q-2.95 36.0 -1.7 35.7 -1.3 33.4 -2.6 33.35 L-1.4 32.55 Q0.05 32.0 1.4 33.25 1.0 33.4 0.65 33.75 -0.05 34.45 0.35 35.65" fill="#c6c6c6" fill-rule="evenodd" stroke="none"/>
      <path d="M-1.05 34.95 Q-1.05 34.15 -1.2 33.8 L-1.55 33.1 0.3 32.95 Q-0.4 33.15 -1.05 34.95" fill="#f9f4f4" fill-rule="evenodd" stroke="none"/>
      <path d="M-3.7 36.55 Q-4.45 37.0 -4.05 37.55 L-4.75 36.35 Q-4.8 35.8 -4.45 35.35 L-4.4 35.45 Q-3.7 36.2 -2.7 36.2 L-3.7 36.55" fill="#f9f4f4" fill-rule="evenodd" stroke="none"/>
      <path d="M2.25 35.95 L3.1 35.55 3.55 36.6 3.25 37.6 0.95 36.35 1.0 36.25 2.25 35.95" fill="#f9f4f4" fill-rule="evenodd" stroke="none"/>
      <path d="M-1.3 39.2 L-1.1 38.6 -0.85 39.25 0.3 39.95 -0.9 40.25 -2.25 40.05 Q-1.6 39.9 -1.3 39.2" fill="#f9f4f4" fill-rule="evenodd" stroke="none"/>
      <path d="M-1.85 36.35 Q-1.1 36.15 -1.0 35.9 L-0.45 34.8 Q-0.6 35.75 -0.4 36.05 L1.1 36.95 -0.5 36.95 -0.3 38.4 -0.9 37.75 -1.3 37.1 -1.85 36.9 -2.75 36.9 -1.9 36.45 -1.85 36.35" fill="#f9f4f4" fill-rule="evenodd" stroke="none"/>
    </g>
  </defs>
</svg>
